X: 6684
T: Celtic Towers, The
R: jig
M: 6/8
K: Edorian
|:E2B BAF|GBG FBF|E2B BAF|DED GDF|
E2B BAF|GBG FGA|d2d dcB|1 ABG FED:|2 ABG FGA||
BEE EFG|BEE Bcd|BEE EFG|ABG FGA|
BEE EFG|BEE B2c|d2d dcB|ABG FGA:|
|:Bee gef|Add fed|Bee gea|ege fed|
Bee gef|Add fed|edB =cBA|1 BAG FGA:|2 BAG AGF||

